X:40
T:God Save the King. TJD.40
M:3/4
L:1/4
Q:1/4=120
S:T.J.Dixon MS2, Lincolnshire, early 19thC
R:Air
A:Lincolnshire, Holton le Moor
Z:vmp.R.Greig2010
K:G
GGA|F>GA|BBcB>AG|AGF|FG2:|!
ddd|d>cB|ccc|c>BA|Bc/B/A/G/|B>cd|eA2|FG2|]

